X:59
M:2/4
L:1/8
K:D
e | fa/f/ ed | Bd A2 | fa/f/ ed | fe ef | 
dd/e/ fd | Bd A2 | FE FA/F/ | EF D :|| 

